packages/kaspersky-hexa-ui-icons/src/iconsSVGs/64x42/FlagLk.svg

<svg width="64" height="42" viewBox="0 0 64 42" fill="none" xmlns="http://www.w3.org/2000/svg">
<g clip-path="url(#clip0_37941_2295)">
<rect width="64" height="42" rx="5" fill="white"/>
<rect width="64" height="42" fill="#FFBF19"/>
<path fill-rule="evenodd" clip-rule="evenodd" d="M23.5647 2.80005H58.2522C59.7986 2.80005 61.0522 4.05365 61.0522 5.60005V36.4001C61.0522 37.9464 59.7986 39.2001 58.2522 39.2001H23.5647V2.80005Z" fill="#A52531"/>
<path d="M3.40002 5.60005C3.40002 4.05365 4.65363 2.80005 6.20002 2.80005H11.8V39.2001H6.20003C4.65363 39.2001 3.40002 37.9464 3.40002 36.4001V5.60005Z" fill="#03664F"/>
<rect x="11.8" y="2.80005" width="8.4" height="36.4" fill="#FF6816"/>
<path fill-rule="evenodd" clip-rule="evenodd" d="M27.7999 8.39998C28.5731 8.39998 29.1999 7.77317 29.1999 6.99998C29.1999 6.22678 28.5731 5.59998 27.7999 5.59998C27.0267 5.59998 26.3999 6.22678 26.3999 6.99998C26.3999 7.77317 27.0267 8.39998 27.7999 8.39998ZM56.6726 8.39998C55.8994 8.39998 55.2726 7.77317 55.2726 6.99998C55.2726 6.22678 55.8994 5.59998 56.6726 5.59998C57.4458 5.59998 58.0726 6.22678 58.0726 6.99998C58.0726 7.77317 57.4458 8.39998 56.6726 8.39998ZM55.2726 34.9998C55.2726 34.2266 55.8994 33.5998 56.6726 33.5998C57.4458 33.5998 58.0726 34.2266 58.0726 34.9998C58.0726 35.773 57.4458 36.3998 56.6726 36.3998C55.8994 36.3998 55.2726 35.773 55.2726 34.9998ZM27.7999 33.5998C28.5731 33.5998 29.1999 34.2266 29.1999 34.9998C29.1999 35.773 28.5731 36.3998 27.7999 36.3998C27.0267 36.3998 26.3999 35.773 26.3999 34.9998C26.3999 34.2266 27.0267 33.5998 27.7999 33.5998Z" fill="#FFBF18"/>
<path fill-rule="evenodd" clip-rule="evenodd" d="M37.6435 26.4045C37.6435 25.7393 37.1042 25.2 36.4389 25.2C36.3095 25.2 36.1812 25.1793 36.0593 25.1358C35.2492 24.8462 32.0435 23.6231 32.0435 22.4C32.0435 21.6338 32.4628 20.8676 32.8424 20.3309C33.173 19.8636 33.2961 19.2564 33.0932 18.7211C32.6174 17.4654 31.8469 15.1795 32.0435 14C32.1482 13.3718 32.5665 12.8217 33.049 12.3792C33.7959 11.6944 34.8435 12.3416 34.8435 13.3549V18.7347C34.8435 19.265 35.1431 19.7498 35.6174 19.9869L37.038 20.6973C37.3996 20.8781 37.8363 20.8072 38.1221 20.5213C38.5754 20.0681 38.4514 19.3039 37.878 19.0173L36.2435 18.2V16.8C36.941 16.8 37.1629 15.8597 36.5391 15.5478L36.2435 15.4V14H38.4636C38.8349 14 39.191 13.8525 39.4535 13.5899L40.0334 13.01C40.296 12.7475 40.6521 12.6 41.0234 12.6H42.3782C42.9085 12.6 43.3933 12.8996 43.6304 13.3739L44.3841 14.8813C44.5502 15.2134 44.5775 15.5979 44.4601 15.9501L43.8577 17.7573C43.5555 18.6638 44.2303 19.6 45.1859 19.6H49.7883C50.0797 19.6 50.3592 19.4842 50.5653 19.2781C51.0957 18.7477 50.9506 17.8536 50.2797 17.5181L49.1391 16.9478C48.9447 16.8506 48.7303 16.8 48.513 16.8H47.4435C46.6703 16.8 46.0435 16.1732 46.0435 15.4V14.5799C46.0435 14.2086 46.191 13.8525 46.4535 13.5899L47.4435 12.6V14C47.4435 14.7732 48.0703 15.4 48.8435 15.4H50.7782C51.3085 15.4 51.7933 15.6996 52.0304 16.1739L52.9312 17.9754C53.0054 18.124 53.0527 18.2838 53.0679 18.4491C53.1322 19.1538 53.2858 21.1884 53.0435 22.4C52.8471 23.3818 52.2974 24.2905 51.948 24.7929C51.7603 25.0628 51.6435 25.3802 51.6435 25.709V29.7305C51.6435 30.3212 51.1646 30.8 50.574 30.8C49.7789 30.8 49.2618 29.9633 49.6174 29.2522L50.0957 28.2956C50.1887 28.1095 50.1887 27.8905 50.0957 27.7044L50.0296 27.5722C49.7341 26.9813 48.8435 27.1915 48.8435 27.8522C48.8435 27.9494 48.8208 28.0452 48.7774 28.1322L47.7896 30.1078C47.5775 30.532 47.1439 30.8 46.6696 30.8C45.7387 30.8 45.1333 29.8204 45.5496 28.9878L45.8957 28.2956C45.9929 28.1012 46.0435 27.8868 46.0435 27.6695V26.6C46.0435 25.8268 45.4167 25.2 44.6435 25.2H41.8435C41.0703 25.2 40.4435 25.8268 40.4435 26.6V27.6695C40.4435 27.8868 40.3929 28.1012 40.2957 28.2956L39.3896 30.1078C39.1775 30.532 38.7439 30.8 38.2696 30.8C37.3387 30.8 36.7333 29.8204 37.1496 28.9878L37.4957 28.2956C37.5929 28.1012 37.6435 27.8868 37.6435 27.6695V26.4045Z" fill="#FFBF18"/>
</g>
<defs>
<clipPath id="clip0_37941_2295">
<rect width="64" height="42" rx="5" fill="white"/>
</clipPath>
</defs>
</svg>

<svg xmlns="http://www.w3.org/2000/svg" width="64" height="42" fill="none" viewBox="0 0 64 42"><g clip-path="url(#a)"><rect width="64" height="42" fill="#fff" rx="5"/><path fill="#ffbf19" d="M0 0h64v42H0z"/><path fill="#a52531" fill-rule="evenodd" d="M23.5647 2.8h34.6875c1.5464 0 2.8 1.2537 2.8 2.8v30.8001c0 1.5463-1.2536 2.8-2.8 2.8H23.5647z" clip-rule="evenodd"/><path fill="#03664f" d="M3.4 5.6c0-1.5463 1.2536-2.8 2.8-2.8h5.6v36.4001H6.2c-1.5464 0-2.8-1.2537-2.8-2.8z"/><path fill="#ff6816" d="M11.8 2.8001h8.4v36.4h-8.4z"/><path fill="#ffbf18" fill-rule="evenodd" d="M27.8 8.4c.773 0 1.4-.627 1.4-1.4s-.627-1.4-1.4-1.4-1.4.627-1.4 1.4.627 1.4 1.4 1.4m28.873 0c-.773 0-1.4-.627-1.4-1.4s.627-1.4 1.4-1.4 1.4.627 1.4 1.4-.627 1.4-1.4 1.4m-1.4 26.6c0-.773.627-1.4 1.4-1.4s1.4.627 1.4 1.4-.627 1.4-1.4 1.4-1.4-.627-1.4-1.4M27.8 33.6c.773 0 1.4.627 1.4 1.4s-.627 1.4-1.4 1.4-1.4-.627-1.4-1.4.627-1.4 1.4-1.4m9.844-7.195c0-.665-.539-1.204-1.205-1.204a1.13 1.13 0 0 1-.38-.064c-.81-.29-4.016-1.513-4.016-2.736 0-.766.419-1.532.799-2.069.331-.467.454-1.074.251-1.61-.476-1.256-1.246-3.542-1.05-4.721.105-.628.523-1.178 1.006-1.621.747-.685 1.795-.038 1.795.976v5.38a1.4 1.4 0 0 0 .774 1.252l1.421.71a.939.939 0 0 0 1.084-.176c.453-.453.329-1.217-.244-1.504l-1.635-.818v-1.4c.698 0 .919-.94.296-1.252l-.296-.148V14h2.22c.371 0 .727-.147.99-.41l.58-.58c.263-.262.619-.41.99-.41h1.355a1.4 1.4 0 0 1 1.252.774l.754 1.507c.166.332.193.717.076 1.069l-.602 1.807c-.302.907.373 1.843 1.328 1.843h4.602a1.1 1.1 0 0 0 .777-.322c.53-.53.385-1.424-.286-1.76l-1.141-.57a1.4 1.4 0 0 0-.626-.148h-1.069c-.773 0-1.4-.627-1.4-1.4v-.82c0-.371.148-.727.41-.99l.99-.99V14c0 .773.627 1.4 1.4 1.4h1.935a1.4 1.4 0 0 1 1.252.774l.901 1.802a1.33 1.33 0 0 1 .137.474c.064.705.218 2.739-.024 3.951-.196.982-.746 1.891-1.095 2.393-.188.27-.304.587-.304.916v4.021c0 .591-.479 1.07-1.069 1.07-.795 0-1.312-.837-.957-1.548l.478-.957a.661.661 0 0 0 0-.591l-.066-.132c-.295-.591-1.186-.381-1.186.28a.63.63 0 0 1-.066.28l-.988 1.976a1.252 1.252 0 0 1-1.12.692c-.931 0-1.536-.98-1.12-1.812l.346-.692a1.4 1.4 0 0 0 .148-.626V26.6c0-.773-.627-1.4-1.4-1.4h-2.8c-.773 0-1.4.627-1.4 1.4v1.07c0 .217-.051.432-.148.626l-.906 1.812a1.252 1.252 0 0 1-1.12.692c-.931 0-1.536-.98-1.12-1.812l.346-.692a1.4 1.4 0 0 0 .148-.626z" clip-rule="evenodd"/></g><defs><clipPath id="a"><rect width="64" height="42" fill="#fff" rx="5"/></clipPath></defs></svg>
